X:94
T: ES GING EINST EIN VERLIEBTES PAAR
N: E0052
O: Europa, Mitteleuropa, Deutschland, Rheinland; Lahnkreis; Dillkreis
R: erzaehlendes Volks - Lied, Sage, Mord, Verfuehrung
M: 6/8
L: 1/8
K: G
d | d2dg2g | B2Bd2
d | A2Age^c | e3d2
d | d2dg2g | B2Bd2
A | BedcBA | A3G2

